X:1
T:Alma Redemptoris Mater - Anerio
T:#
%%score [ 1 2 3 4 ]
L:1/8
Q:1/4=200
M:none
K:F
V:1 treble nm="Soprano" snm="S"
V:2 treble nm="Alto" snm="A"
V:3 treble-8 nm="Tenor" snm="T"
V:4 bass nm="Bass" snm="B"
V:1
 z8"^Alma Redemptoris Mater""^Felice Anerio\n(c. 1560-1614)" (F8 | A6 B2 c8 | d6 e2 f8- | %3
w: Al\-|||
 f4 e4 d8 | c6 B2 A4 =B4) | c8 z4 c4- |[M:4/2] c4 c4 (F8 | G8) (G8 | A8) (=B8 | c8 d8- | %10
w: ||ma Re\-|* dem- pto\-|* ris|* Ma\-||
 d4 e4) f8- | f8 c8 | d6 d2 e8 | f8 c8 | d4 d4 c8 | c8 c8 | B4 c4 A8 | G4 d4 d4 A4- | %18
w: * * ter,|* quae|per- vi- a|coe- li|por- ta ma-|nes, et|stel- la ma-|ris, suc- cur- re|
 A4 f4 (f2 e2 d2 c2) | B8 A8 ||[M:3/1][Q:1/4=400] c12 c4 c8 | c8 f8 e8 | d12 d4 d8 | f12 f4 f8 | %24
w: * ca- den\- * * *|* ti,|sur- ge- re|qui cu- rat|po- pu- lo,|sur- ge- re|
 d8 d8 f8 | e12 e4 e8 || x24 |[M:4/2] z4 f8 e4 | d4 c4 =B8 | =B4 B4 B8 | c4 c4 B8 | A16 | z16 | %33
w: qui cu- rat|po- pu- lo:||Tu quae|ge- nu- i-|sti, na- tu-|ra mi- ran-|te,||
 z16 | z16 | f16 | e8 d8 | ^c8 d8- | d4 c4 B4 B4 | A8 z4 c4 | d4 c8 A4 | d8 c8 | =B8 z8 | z16 | %44
w: ||Vir-|go pri-|us ac|* po- ste- ri-|us, Ga-|bri- e- lis|ab o-|re||
 z16 | z16 | G8 (d8 | e8) (c8 | d6 e2 f8 | g8) f4 (e4- | e2 d2 d8 ^c4) | d8 z4 c4- | c4 A4 d8 | %53
w: ||su- mens|* il\-||* lud A\-||ve pec\-|* ca- to-|
 c8 F4 F4 | G8 G8- | G8 z4 c4- | c4 =B4 c8 | F8 G8 | A8 B8 | G8 A8- | A4 G4[Q:1/4=197] A8 | %61
w: rum mi- se-|re- re,|* pec\-|* ca- to-|rum mi-|se- re-|re, pec\-|* ca- to-|
[Q:1/4=192] F8[Q:1/4=188] z4[Q:1/4=185] c4- |[Q:1/4=183] c4[Q:1/4=180] =B4[Q:1/4=177] c8- | %63
w: rum, mi\-|* se- re\-|
[Q:1/4=172] c8[Q:1/4=170] A16 |] %64
w: * re.|
V:2
 (C8 D6 E2 | F4 E2 D2 E4 F4- | F2 E2 F2 G2 A2 G2 A2 B2 | c8 B6 A2 | G4) (A8 G2 F2 | G4) G8 G4 | %6
w: Al\- * *||||* ma * *|* Re- dem-|
[M:4/2] (C2 D2 E2 C2 D2 E2 F4- | F4 E2 D2 E4) E4 | z8 G8 | C8 F8 | G6 G2 A8- | A16 | B8 A8 | %13
w: pto- * * * * * *|* * * * ris|Ma-|ter, quae|per- vi- a||coe- li|
 A12 c4 | B8 (A4 G2 F2 | G4) G8 A4 | G4 (G6 ^F2 F4) | G8 z4 F4 | F4 C4 D4 F4- | (F2 G2 F4) F8 || %20
w: por- ta|ma- nes, * *|* et stel-|la ma\- * *|ris, suc-|cur- re ca- den\-|* * * ti,|
[M:3/1] G12 G4 G8 | A8 F8 G8 | G12 G4 G8 | A12 A4 A8 | F8 B8 c8 | c12 c4 c8 || x24 | %27
w: sur- ge- re|qui cu- rat|po- pu- lo,|sur- ge- re|qui cu- rat|po- pu- lo:||
[M:4/2] A12 c4 | B4 G4 G8 | G4 G4 G4 G4- | G4 ^F4 G8 | C4 C4 D4 (F4- | F2 G2 A4) G8 | F12 E4 | %34
w: Tu quae|ge- nu- i-|sti, na- tu- ra|* mi- ran-|te, tu- um san\-|* * * ctum|Ge- ni-|
 D8 E8 | A16 | A8 (F6 G2 | A4) A4 F8 | A8 G4 G4 | C12 G4- | G4 G4 A8 | G4 F4 A4 A4 | D8 G8 | %43
w: to- rem,|Vir-|go pri\- *|* us ac|po- ste- ri-|us, Ga\-|* bri- e-|lis ab o- re|su- mens|
 (A6 B2 c2 B2 A2 G2 | F8 B8) | A8 D8 | E8 F4 D4 | A16 | (B8 A8 | G6 A2 B2 A2) A4 | A8 A8 | %51
w: ||il- lud|A- ve, su-|mens|il\- *|* * * * lud|A- ve|
 z4 A8 G4 | A4 c4 B4 G4- | G4 (A6 G2 F4- | F2 E2 E2 DC D8) | E4 G4 A8 | (G6 F2 E2 DE F4-) | %57
w: pec- ca-|to- rum, pec- ca\-|* to\- * *||rum mi- se-|re\- * * * * *|
 (F2 E2 D2 C2 B,8) | C8 z4 F4- | F4 E4 F8 | C8 z4 C4 | D8 (E8 | F12 E2 D2 | E8) F16 |] %64
w: |re, pec\-|* ca- to-|rum mi-|se- re\-||* re.|
V:3
 z16 | z16 | z16 | (c8 d8) | (e8 f8- | f4 e2 d2 e8) |[M:4/2][K:treble-8] z16 | z4 g4 g4 c4- | %8
w: |||Al\- *|ma *|||Re- dem- pto\-|
 c4 d8 (e4- | e4 f8) d4 | B8 c6 c2 | d8 e8 | f8 z8 | z4 d4 e4 f4- | f4 (g6 f2 f4- | %15
w: * ris Ma\-|* * ter,|quae per- vi-|a coe-|li|por- ta ma\-|* nes, * *|
 f4 e2 d2 e4) c4 | _e4 c4 d8 | =B8 d4 d4 | A8 B8 | d8 c8 ||[M:3/1] e12 e4 e8 | A8 A8 c8 | %22
w: * * * * et|stel- la ma-|ris, suc- cur-|re ca-|den- ti,|sur- ge- re|qui cu- rat|
 =B12 B4 B8 | c12 c4 c8 | d8 d8 a8 | g12 g4 g8 || x24 |[M:4/2][K:treble-8] (f6 e2 d4) c4 | %28
w: po- pu- lo,|sur- ge- re|qui cu- rat|po- pu- lo:||Tu * * quae|
 f4 e4 d8 | d4 d4 d8 | e4 c4 d8 | f8 z4 c4 | d4 f4 e4 d4- | d4 c4 (d2 c2 c4-) | (c4 =B4) c8 | %35
w: ge- nu- i-|sti, na- tu-|ra mi- ran-|te, tu-|um san- ctum Ge\-|* ni- to\- * *|* * rem,|
 (A8 d8) | ^c8 d8 | e8 d8 | f4 f8 e4 | f8 e8 | d4 e8 f4 | d8 e8 | g8 G8 | (d8 e6 c2 | d4) (d8 e4- | %45
w: Vir\- *|go pri-|us ac|po- ste- ri-|us, Ga-|bri- e- lis|ab o-|re su-|mens * *|* il\- *|
 e4) (f8 g4- | g2 f2 e4) (d8 | c6 d2 e8) | g8 z4 (d4- | d2 c2 c2 =Bc d4) e4 | f8 e8 | z4 f8 e4 | %52
w: * lud *|* * * A\-||ve, il\-|* * * * * * lud|A- ve|pec- ca-|
 f8 B8 | c8 d8 | c8 G4 g4- | g4 e4 f8 | (d8 c8) | z4 f8 e4 | (f8 B8) | c16 | z4 c8 A4 | B8 G4 A4- | %62
w: to- rum|mi- se-|re- re, pec\-|* ca- to-|rum, *|pec- ca-|to\- *|rum|mi- se-|re- re, mi\-|
 A4 F4 G8- | G8 F16 |] %64
w: * se- re\-|* re.|
V:4
 z16 | z16 | z8 (F,8 | A,8 B,8 | C8 D8 | C8) C,8- |[M:4/2] C,8 z8 | C8 C8 | F,8 G,8 | %9
w: ||Al\-|||* ma||Re- dem-|pto- ris|
 (A,8 B,6 A,2 | G,8) F,8 | D,8 A,6 A,2 | D,4 D8 ^C4 | D8 A,8 | (B,8 C8) | C,16 | z16 | %17
w: Ma\- * *|* ter,|quae per- vi-|a coe- li|por- ta|ma\- *|nes,||
 G,4 G,4 D,4 D,4 | (F,6 E,2 D,2 C,2 B,,2 A,,2) | B,,8 F,8 ||[M:3/1] C,12 C,4 C,8 | F,8 D,8 C,8 | %22
w: suc- cur- re ca-|den\- * * * * *|* ti,|sur- ge- re|qui cu- rat|
 G,12 G,4 G,8 | F,12 F,4 F,8 | B,8 G,8 F,8 | C12 C4 C8 || x24 |[M:4/2] z4 D8 A,4 | B,4 C4 G,8 | %29
w: po- pu- lo,|sur- ge- re|qui cu- rat|po- pu- lo:||Tu quae|ge- nu- i-|
 G,4 G,4 G,8 | C4 A,4 G,8 | F,16 | z4 F,4 G,4 B,4- | B,4 A,4 =B,4 C4 | G,8 C,8 | D,16 | A,8 B,8 | %37
w: sti, na- tu-|ra mi- ran-|te,|tu- um san\-|* ctum Ge- ni-|to- rem,|Vir-|go pri-|
 A,8 B,8 | F,8 G,6 G,2 | F,8 C8 | =B,4 C8 D4 | _B,8 A,8 | G,8 z8 | D,8 (A,8 | B,8) (G,8 | %45
w: us ac|po- ste- ri-|us, Ga-|bri- e- lis|ab o-|re|su- mens|* il\-|
 A,8) (B,8 | C8) (B,8 | A,8) A,8 | G,8 (D,8 | E,8 D,4) ^C,4 | (D,8 A,8) | D,8 z8 | z16 | z16 | %54
w: * lud|* A\-|* ve,|* il\-|* * lud|A\- *|ve|||
 z4 C8 =B,4 | C8 F,8 | G,8 A,8 | (B,6 A,2 G,8) | F,8 z8 | z8 F,8- | F,4 E,4 F,8 | B,,8 C,8 | %62
w: pec- ca-|to- rum|mi- se-|re\- * *|re,|pec\-|* ca- to-|rum mi-|
 D,8 C,8- | C,8 F,16 |] %64
w: se- re\-|* re.|

